icon-svg/patio-doors-open.svg

<svg xmlns="http://www.w3.org/2000/svg" fill="#44739e" viewBox="0 0 24 24"><path d="m18.665 20.46 2.2.52h.02a.09.09 0 0 0 .054-.019.086.086 0 0 0 .033-.068V3.022a.088.088 0 0 0-.107-.085l-2.2.52a.088.088 0 0 0-.067.085v16.833a.089.089 0 0 0 .067.085m.107-16.829v-.02l2.028-.479v.041l-2.013.475v.02l2.013-.475v8.65h.087a.015.015 0 0 1 .015.016.015.015 0 0 1-.015.015h-.809v.208h.82v.011a.015.015 0 0 1-.015.016H20.8v.038h-.741a.016.016 0 0 1-.016-.016v.02a.016.016 0 0 0 .016.016h.741v8.613l-2.025-.479Zm2.967-1.569a.016.016 0 0 0-.016-.015H21.6l-3.14.733v-.318a.015.015 0 0 0-.015-.015H5.251a.016.016 0 0 0-.016.015v.319l-3.019-.694a.016.016 0 0 1 .011.014v19.793a.016.016 0 0 1-.016.016l3.019-.729v.474a.016.016 0 0 0 .016.016h13.199a.016.016 0 0 0 .015-.016v-.478l3.14.733h.123a.016.016 0 0 0 .016-.016v-.011l.089.029V2.044l-.089.03zm-16.5 18.5-2.568.593V2.762l2.568.632zm12.754.482H5.706V2.947h12.283v18.1zm3.119.151-2.648-.633V3.394l2.648-.632zm.6-18.653v19.336h-.089v-19.8h.089v.449zm.159-.466v19.88H22V2.076ZM2.12 2.18v19.736h.088V2.151l-.088-.029Zm-.04-.04v19.776h.008v-19.8H2.08ZM2 2.26v19.656h.049V2.156H2Zm.892 18.702h.02l2.119-.52a.087.087 0 0 0 .067-.084V3.522a.087.087 0 0 0-.068-.085l-2.119-.48a.086.086 0 0 0-.106.085v17.833a.087.087 0 0 0 .087.087m0-9.108a.016.016 0 0 1-.016-.015.016.016 0 0 1 .016-.016h.087V3.151l1.945.44v16.7l-1.945.478v-8.67h-.087a.016.016 0 0 1-.016-.016.016.016 0 0 1 .016-.015h.864v-.209z"/></svg>

<?xml version="1.0" encoding="UTF-8"?>
<svg width="24px" fill="#44739e" height="24px" viewBox="0 0 24 24" version="1.1" xmlns="http://www.w3.org/2000/svg" xmlns:xlink="http://www.w3.org/1999/xlink">
            <path d="m 18.665,20.46 2.2,0.52 h 0.02 a 0.091,0.091 0 0 0 0.054,-0.019 0.086,0.086 0 0 0 0.033,-0.068 V 3.022 A 0.088,0.088 0 0 0 20.865,2.937 l -2.2,0.52 a 0.088,0.088 0 0 0 -0.067,0.085 v 16.833 a 0.089,0.089 0 0 0 0.067,0.085 z M 18.772,3.631 V 3.611 L 20.8,3.132 v 0.041 l -2.013,0.475 v 0.02 L 20.8,3.193 v 8.65 h 0.087 a 0.015,0.015 0 0 1 0.015,0.016 0.015,0.015 0 0 1 -0.015,0.015 v 0 0 h -0.809 v 0.208 h 0.82 v 0.011 a 0.015,0.015 0 0 1 -0.015,0.016 H 20.8 v 0.038 h -0.741 a 0.016,0.016 0 0 1 -0.016,-0.016 v 0.02 a 0.016,0.016 0 0 0 0.016,0.016 H 20.8 V 20.78 L 18.775,20.301 Z M 21.739,2.062 A 0.016,0.016 0 0 0 21.723,2.047 H 21.6 L 18.46,2.78 V 2.462 A 0.015,0.015 0 0 0 18.445,2.447 H 5.251 A 0.016,0.016 0 0 0 5.235,2.462 V 2.781 L 2.216,2.087 v 0 A 0.016,0.016 0 0 1 2.227,2.101 V 21.894 A 0.016,0.016 0 0 1 2.211,21.91 v 0 L 5.23,21.181 v 0.474 a 0.016,0.016 0 0 0 0.016,0.016 h 13.199 a 0.016,0.016 0 0 0 0.015,-0.016 v -0.478 l 3.14,0.733 h 0.123 a 0.016,0.016 0 0 0 0.016,-0.016 v -0.011 l 0.089,0.029 V 2.044 l -0.089,0.03 z m -16.5,18.5 -2.568,0.593 V 2.762 l 2.568,0.632 z m 12.754,0.482 H 5.706 V 2.947 h 12.283 v 18.1 z m 3.119,0.151 -2.648,-0.633 V 3.394 l 2.648,-0.632 z m 0.6,-18.653 v 19.336 h -0.089 v -19.8 h 0.089 v 0.449 0 z m 0.159,-0.466 v 19.88 H 22 V 2.7 2.46 2.076 Z M 2.12,2.18 v 0.04 0.2 19.496 H 2.208 V 2.151 L 2.12,2.122 Z M 2.08,2.14 V 2.26 2.38 2.46 21.916 H 2.088 V 2.42 2.22 2.18 2.116 H 2.08 Z M 2,2.26 v 0.2 19.456 H 2.049 V 2.46 2.38 2.26 2.156 H 2 Z m 0.892,18.702 h 0.02 l 2.119,-0.52 A 0.087,0.087 0 0 0 5.098,20.358 V 3.522 A 0.087,0.087 0 0 0 5.03,3.437 L 2.911,2.957 A 0.086,0.086 0 0 0 2.805,3.042 v 17.833 a 0.087,0.087 0 0 0 0.087,0.087 z m 0,-9.108 A 0.016,0.016 0 0 1 2.876,11.839 0.016,0.016 0 0 1 2.892,11.823 H 2.979 V 3.151 l 1.945,0.44 v 16.7 l -1.945,0.478 v -8.67 H 2.892 A 0.016,0.016 0 0 1 2.876,12.083 0.016,0.016 0 0 1 2.892,12.068 h 0.864 v -0.209 z"/>

</svg>
